flaticon/baby/feeding.svg

<svg xmlns="http://www.w3.org/2000/svg" width="32" height="32" viewBox="0 0 24 24">
    <path d="M 19.457031 8.570312 L 19.285156 8.570312 L 19.285156 4.925781 C 19.285156 4.335938 18.804688 3.855469 18.21875 3.855469 L 15.574219 3.855469 C 14.785156 3.855469 14.144531 3.214844 14.144531 2.425781 L 14.144531 2.148438 C 14.144531 1.4375 13.5625 0.855469 12.851562 0.855469 L 11.148438 0.855469 C 10.4375 0.855469 9.855469 1.4375 9.855469 2.148438 L 9.855469 2.425781 C 9.855469 3.214844 9.214844 3.855469 8.425781 3.855469 L 5.78125 3.855469 C 5.195312 3.855469 4.714844 4.335938 4.714844 4.925781 L 4.714844 8.570312 L 4.542969 8.570312 C 2.035156 8.570312 0 10.609375 0 13.113281 L 0 16.03125 C 0 18.535156 2.035156 20.570312 4.542969 20.570312 L 4.714844 20.570312 L 4.714844 20.894531 C 4.714844 22.132812 5.722656 23.144531 6.964844 23.144531 L 17.035156 23.144531 C 18.277344 23.144531 19.285156 22.132812 19.285156 20.894531 L 19.285156 20.570312 L 19.457031 20.570312 C 21.964844 20.570312 24 18.535156 24 16.03125 L 24 13.113281 C 24 10.609375 21.964844 8.570312 19.457031 8.570312 Z M 5.570312 4.925781 C 5.570312 4.808594 5.667969 4.714844 5.78125 4.714844 L 8.425781 4.714844 C 9.6875 4.714844 10.714844 3.6875 10.714844 2.425781 L 10.714844 2.148438 C 10.714844 1.910156 10.910156 1.714844 11.148438 1.714844 L 12.851562 1.714844 C 13.089844 1.714844 13.285156 1.910156 13.285156 2.148438 L 13.285156 2.425781 C 13.285156 3.6875 14.3125 4.714844 15.574219 4.714844 L 18.21875 4.714844 C 18.332031 4.714844 18.429688 4.808594 18.429688 4.925781 L 18.429688 6.855469 L 5.570312 6.855469 Z M 4.542969 19.714844 C 2.507812 19.714844 0.855469 18.0625 0.855469 16.03125 L 0.855469 13.113281 C 0.855469 11.082031 2.507812 9.429688 4.542969 9.429688 L 4.714844 9.429688 L 4.714844 10.285156 L 4.542969 10.285156 C 2.984375 10.285156 1.714844 11.554688 1.714844 13.113281 L 1.714844 16.03125 C 1.714844 17.589844 2.984375 18.855469 4.542969 18.855469 L 4.714844 18.855469 L 4.714844 19.714844 Z M 4.714844 18 L 4.542969 18 C 3.457031 18 2.570312 17.117188 2.570312 16.03125 L 2.570312 13.113281 C 2.570312 12.027344 3.457031 11.144531 4.542969 11.144531 L 4.714844 11.144531 Z M 18.429688 20.894531 C 18.429688 21.660156 17.804688 22.285156 17.035156 22.285156 L 6.964844 22.285156 C 6.195312 22.285156 5.570312 21.660156 5.570312 20.894531 L 5.570312 7.714844 L 18.429688 7.714844 Z M 19.285156 11.144531 L 19.457031 11.144531 C 20.542969 11.144531 21.429688 12.027344 21.429688 13.113281 L 21.429688 16.03125 C 21.429688 17.117188 20.542969 18 19.457031 18 L 19.285156 18 Z M 23.144531 16.03125 C 23.144531 18.0625 21.492188 19.714844 19.457031 19.714844 L 19.285156 19.714844 L 19.285156 18.855469 L 19.457031 18.855469 C 21.015625 18.855469 22.285156 17.589844 22.285156 16.03125 L 22.285156 13.113281 C 22.285156 11.554688 21.015625 10.285156 19.457031 10.285156 L 19.285156 10.285156 L 19.285156 9.429688 L 19.457031 9.429688 C 21.492188 9.429688 23.144531 11.082031 23.144531 13.113281 Z M 23.144531 16.03125"/>
    <path d="M 17.375 12.425781 L 13.996094 11.933594 L 12.488281 8.871094 C 12.394531 8.6875 12.207031 8.570312 12 8.570312 C 11.792969 8.570312 11.605469 8.6875 11.511719 8.871094 L 10.003906 11.933594 L 6.625 12.425781 C 6.417969 12.457031 6.25 12.597656 6.1875 12.792969 C 6.121094 12.992188 6.175781 13.207031 6.324219 13.351562 L 8.769531 15.734375 L 8.191406 19.097656 C 8.15625 19.304688 8.238281 19.507812 8.40625 19.628906 C 8.5 19.699219 8.613281 19.734375 8.726562 19.734375 C 8.8125 19.734375 8.898438 19.714844 8.980469 19.671875 L 12 18.082031 L 15.019531 19.671875 C 15.207031 19.769531 15.425781 19.753906 15.59375 19.628906 C 15.761719 19.507812 15.84375 19.304688 15.808594 19.097656 L 15.230469 15.734375 L 17.675781 13.351562 C 17.828125 13.207031 17.878906 12.992188 17.8125 12.792969 C 17.75 12.597656 17.582031 12.457031 17.375 12.425781 Z M 14.515625 15.234375 C 14.386719 15.359375 14.328125 15.539062 14.359375 15.714844 L 14.855469 18.617188 L 12.253906 17.246094 C 12.09375 17.164062 11.90625 17.164062 11.746094 17.246094 L 9.144531 18.617188 L 9.640625 15.71875 C 9.671875 15.539062 9.613281 15.359375 9.484375 15.234375 L 7.378906 13.183594 L 10.289062 12.757812 C 10.464844 12.734375 10.617188 12.621094 10.699219 12.460938 L 12 9.824219 L 13.304688 12.460938 C 13.382812 12.621094 13.535156 12.734375 13.710938 12.757812 L 16.621094 13.179688 Z M 14.515625 15.234375"/>
</svg>

<svg xmlns="http://www.w3.org/2000/svg" width="32" height="32" viewBox="0 0 24 24">
    <path d="M19.457 8.57h-.172V4.926c0-.59-.48-1.07-1.066-1.07h-2.645c-.789 0-1.43-.641-1.43-1.43v-.278c0-.71-.582-1.293-1.292-1.293h-1.704c-.71 0-1.293.583-1.293 1.293v.278c0 .789-.64 1.43-1.43 1.43H5.782c-.586 0-1.066.48-1.066 1.07V8.57h-.172A4.547 4.547 0 0 0 0 13.113v2.918a4.544 4.544 0 0 0 4.543 4.54h.172v.324a2.253 2.253 0 0 0 2.25 2.25h10.07a2.253 2.253 0 0 0 2.25-2.25v-.325h.172A4.544 4.544 0 0 0 24 16.031v-2.918a4.547 4.547 0 0 0-4.543-4.543zM5.57 4.926c0-.117.098-.211.211-.211h2.645a2.292 2.292 0 0 0 2.289-2.29v-.277c0-.238.195-.433.433-.433h1.704c.238 0 .433.195.433.433v.278a2.292 2.292 0 0 0 2.29 2.289h2.644c.113 0 .21.094.21.21v1.93H5.57zM4.543 19.715A3.688 3.688 0 0 1 .855 16.03v-2.918A3.688 3.688 0 0 1 4.543 9.43h.172v.855h-.172a2.832 2.832 0 0 0-2.828 2.828v2.918a2.83 2.83 0 0 0 2.828 2.824h.172v.86zM4.715 18h-.172a1.974 1.974 0 0 1-1.973-1.969v-2.918c0-1.086.887-1.968 1.973-1.968h.172zm13.715 2.895c0 .765-.625 1.39-1.395 1.39H6.965c-.77 0-1.395-.625-1.395-1.39V7.715h12.86zm.855-9.75h.172c1.086 0 1.973.882 1.973 1.968v2.918A1.974 1.974 0 0 1 19.457 18h-.172zm3.86 4.886a3.688 3.688 0 0 1-3.688 3.684h-.172v-.86h.172a2.83 2.83 0 0 0 2.828-2.824v-2.918a2.832 2.832 0 0 0-2.828-2.828h-.172V9.43h.172a3.688 3.688 0 0 1 3.688 3.683zm0 0"/>
    <path d="M17.375 12.426l-3.379-.492-1.508-3.063a.549.549 0 0 0-.976 0l-1.508 3.063-3.379.492a.538.538 0 0 0-.438.367.539.539 0 0 0 .137.559l2.446 2.382-.579 3.364a.538.538 0 0 0 .215.53.534.534 0 0 0 .574.044l3.02-1.59 3.02 1.59a.536.536 0 0 0 .574-.043.538.538 0 0 0 .215-.531l-.579-3.364 2.446-2.382a.531.531 0 0 0 .137-.559.538.538 0 0 0-.438-.367zm-2.86 2.808a.538.538 0 0 0-.156.48l.496 2.903-2.601-1.37a.555.555 0 0 0-.508 0l-2.601 1.37.496-2.898a.542.542 0 0 0-.157-.485l-2.105-2.05 2.91-.426a.547.547 0 0 0 .41-.297L12 9.824l1.305 2.637c.078.16.23.273.406.297l2.91.422zm0 0"/>
</svg>
